web/packages/design/src/ResourceIcon/assets/cronitor.svg

<svg width="72" height="72" viewBox="0 0 72 72" fill="none" xmlns="http://www.w3.org/2000/svg">
<path d="M0 10.0005C0 4.47764 4.47715 0.000488281 10 0.000488281H62C67.5228 0.000488281 72 4.47764 72 10.0005V62.0005C72 67.5233 67.5228 72.0005 62 72.0005H10C4.47715 72.0005 0 67.5233 0 62.0005V10.0005Z" fill="#0B1643"/>
<path fill-rule="evenodd" clip-rule="evenodd" d="M38 20.6255C29.5086 20.6255 22.625 27.5091 22.625 36.0005C22.625 44.4919 29.5086 51.3755 38 51.3755C42.3989 51.3755 46.3581 49.5362 49.1684 46.5674L58.1555 55.0746C53.1054 60.4096 45.9378 63.7505 38 63.7505C22.6741 63.7505 10.25 51.3264 10.25 36.0005C10.25 20.6746 22.6741 8.25049 38 8.25049C44.8637 8.25049 51.1593 10.7503 56.0022 14.8816L47.9708 24.2964C45.2832 22.0037 41.8105 20.6255 38 20.6255Z" fill="white"/>
<circle cx="38" cy="36" r="8" fill="#50CC84"/>
</svg>

<svg xmlns="http://www.w3.org/2000/svg" width="72" height="72" fill="none" viewBox="0 0 72 72"><path fill="#0b1643" d="M0 10C0 4.479 4.477 0 10 0h52c5.523 0 10 4.478 10 10v52c0 5.523-4.477 10-10 10H10C4.477 72 0 67.524 0 62z"/><path fill="#fff" fill-rule="evenodd" d="M38 20.626c-8.491 0-15.375 6.883-15.375 15.375 0 8.49 6.884 15.375 15.375 15.375 4.399 0 8.358-1.84 11.168-4.809l8.988 8.508A27.7 27.7 0 0 1 38 63.75c-15.326 0-27.75-12.425-27.75-27.75S22.674 8.25 38 8.25c6.864 0 13.16 2.5 18.002 6.63l-8.031 9.415A15.3 15.3 0 0 0 38 20.626" clip-rule="evenodd"/><circle cx="38" cy="36" r="8" fill="#50cc84"/></svg>
